elementary-add/apps/48/dconf-editor.svg

<?xml version="1.0" encoding="UTF-8" standalone="no"?>
<!-- Created with Inkscape (http://www.inkscape.org/) -->

<svg
   xmlns:dc="http://purl.org/dc/elements/1.1/"
   xmlns:cc="http://creativecommons.org/ns#"
   xmlns:rdf="http://www.w3.org/1999/02/22-rdf-syntax-ns#"
   xmlns:svg="http://www.w3.org/2000/svg"
   xmlns="http://www.w3.org/2000/svg"
   xmlns:xlink="http://www.w3.org/1999/xlink"
   xmlns:sodipodi="http://sodipodi.sourceforge.net/DTD/sodipodi-0.dtd"
   xmlns:inkscape="http://www.inkscape.org/namespaces/inkscape"
   version="1.1"
   width="48"
   height="48"
   id="svg4061"
   inkscape:version="0.91 r"
   sodipodi:docname="dconf-editor.svg">
  <sodipodi:namedview
     pagecolor="#ffffff"
     bordercolor="#666666"
     borderopacity="1"
     objecttolerance="10"
     gridtolerance="10"
     guidetolerance="10"
     inkscape:pageopacity="0"
     inkscape:pageshadow="2"
     inkscape:window-width="1600"
     inkscape:window-height="845"
     id="namedview35"
     showgrid="false"
     inkscape:zoom="7.03"
     inkscape:cx="16.986774"
     inkscape:cy="29.952546"
     inkscape:window-x="0"
     inkscape:window-y="30"
     inkscape:window-maximized="1"
     inkscape:current-layer="svg4061" />
  <defs
     id="defs4063">
    <linearGradient
       id="linearGradient4168">
      <stop
         offset="0"
         style="stop-color:#c24251;stop-opacity:1"
         id="stop4170" />
      <stop
         offset="0.26238"
         style="stop-color:#c24251;stop-opacity:1"
         id="stop4172" />
      <stop
         offset="0.66093999"
         style="stop-color:#a63643;stop-opacity:1"
         id="stop4174" />
      <stop
         offset="1"
         style="stop-color:#a63643;stop-opacity:1"
         id="stop4176" />
    </linearGradient>
    <linearGradient
       x1="71.204407"
       y1="15.369057"
       x2="71.204407"
       y2="40.495617"
       id="linearGradient3177"
       xlink:href="#linearGradient4806-2"
       gradientUnits="userSpaceOnUse"
       gradientTransform="matrix(1.6169806,0,0,1.6169806,-92.707374,-21.060237)" />
    <linearGradient
       id="linearGradient4806-2">
      <stop
         id="stop4808-4"
         style="stop-color:#ffffff;stop-opacity:1"
         offset="0" />
      <stop
         id="stop4810-0"
         style="stop-color:#ffffff;stop-opacity:0.23529412"
         offset="0.42447853" />
      <stop
         id="stop4812-8"
         style="stop-color:#ffffff;stop-opacity:0.15686275"
         offset="0.82089913" />
      <stop
         id="stop4814-0"
         style="stop-color:#ffffff;stop-opacity:0.39215687"
         offset="1" />
    </linearGradient>
    <radialGradient
       cx="15.026252"
       cy="8.6257601"
       r="19.99999"
       fx="4.4589653"
       fy="8.5088921"
       id="radialGradient4013"
       xlink:href="#linearGradient3846"
       gradientUnits="userSpaceOnUse"
       gradientTransform="matrix(-3.4973212e-8,1.8854921,-1.7764068,-5.4722636e-8,39.140041,-7.993163)" />
    <linearGradient
       id="linearGradient3846">
      <stop
         id="stop3848"
         style="stop-color:#d1ffcb;stop-opacity:1;"
         offset="0" />
      <stop
         id="stop3850"
         style="stop-color:#ccfd76;stop-opacity:1;"
         offset="0.26238" />
      <stop
         id="stop3852"
         style="stop-color:#a5f940;stop-opacity:1;"
         offset="0.66093999" />
      <stop
         id="stop3854"
         style="stop-color:#6de420;stop-opacity:1;"
         offset="1" />
    </linearGradient>
    <radialGradient
       cx="23.896"
       cy="3.99"
       r="20.396999"
       fx="23.896"
       fy="3.99"
       id="radialGradient4201"
       xlink:href="#radialGradient3093-0-3-6-6"
       gradientUnits="userSpaceOnUse"
       gradientTransform="matrix(0,2.8885219,-3.8127977,0,39.21344,-65.949504)" />
    <radialGradient
       cx="23.896"
       cy="3.99"
       r="20.396999"
       id="radialGradient3093-0-3-6-6"
       gradientUnits="userSpaceOnUse"
       gradientTransform="matrix(0,1.2316483,-1.625754,0,18.486966,-28.721977)">
      <stop
         id="stop3244-9-33-7-0-9"
         style="stop-color:#ffffff;stop-opacity:1"
         offset="0" />
      <stop
         id="stop3246-3-5-0-8-5"
         style="stop-color:#dddddd;stop-opacity:1"
         offset="0.26238" />
      <stop
         id="stop3248-1-7-8-8-1"
         style="stop-color:#abacae;stop-opacity:1"
         offset="0.66093999" />
      <stop
         id="stop3250-9-3-0-5-1"
         style="stop-color:#89898b;stop-opacity:1"
         offset="1" />
    </radialGradient>
    <linearGradient
       id="linearGradient3820-7-2-1">
      <stop
         id="stop3822-2-6-3"
         style="stop-color:#3d3d3d;stop-opacity:1"
         offset="0" />
      <stop
         id="stop3864-8-7-7"
         style="stop-color:#686868;stop-opacity:0.49803922"
         offset="0.5" />
      <stop
         id="stop3824-1-2-5"
         style="stop-color:#686868;stop-opacity:0"
         offset="1" />
    </linearGradient>
    <radialGradient
       cx="99.157013"
       cy="186.17059"
       r="62.769119"
       fx="99.157013"
       fy="186.17059"
       id="radialGradient4059"
       xlink:href="#linearGradient3820-7-2-1"
       gradientUnits="userSpaceOnUse"
       gradientTransform="matrix(0.27083381,0,0,0.08762273,-2.85507,25.187228)" />
    <linearGradient
       inkscape:collect="always"
       xlink:href="#linearGradient4806-2"
       id="linearGradient3026"
       gradientUnits="userSpaceOnUse"
       gradientTransform="matrix(1.6169806,0,0,1.6169806,-92.707374,-21.060237)"
       x1="71.204407"
       y1="15.369057"
       x2="71.204407"
       y2="40.495617" />
    <radialGradient
       inkscape:collect="always"
       xlink:href="#linearGradient4168"
       id="radialGradient3029"
       gradientUnits="userSpaceOnUse"
       gradientTransform="matrix(-3.4973212e-8,1.8854921,-1.7764068,-5.4722636e-8,39.140041,-7.993163)"
       cx="15.026252"
       cy="8.6257601"
       fx="4.4589653"
       fy="8.5088921"
       r="19.99999" />
    <radialGradient
       inkscape:collect="always"
       xlink:href="#radialGradient3093-0-3-6-6"
       id="radialGradient3032"
       gradientUnits="userSpaceOnUse"
       gradientTransform="matrix(0,2.8885219,-3.8127977,0,39.21344,-65.949504)"
       cx="23.896"
       cy="3.99"
       fx="23.896"
       fy="3.99"
       r="20.396999" />
    <radialGradient
       inkscape:collect="always"
       xlink:href="#linearGradient3820-7-2-1"
       id="radialGradient3035"
       gradientUnits="userSpaceOnUse"
       gradientTransform="matrix(0.27083381,0,0,0.08762273,-2.85507,25.187228)"
       cx="99.157013"
       cy="186.17059"
       fx="99.157013"
       fy="186.17059"
       r="62.769119" />
    <linearGradient
       inkscape:collect="always"
       xlink:href="#linearGradient6303-33-0-2"
       id="linearGradient4433"
       x1="22.758549"
       y1="13.035073"
       x2="23.078474"
       y2="25.610527"
       gradientUnits="userSpaceOnUse"
       gradientTransform="matrix(1,0,0,1.0520648,0,-0.90546526)" />
    <linearGradient
       inkscape:collect="always"
       id="linearGradient6303-33-0-2">
      <stop
         style="stop-color:#ffffff;stop-opacity:1;"
         offset="0"
         id="stop6305-1-0-2" />
      <stop
         style="stop-color:#ffffff;stop-opacity:0;"
         offset="1"
         id="stop6307-5-0-6" />
    </linearGradient>
  </defs>
  <metadata
     id="metadata4066">
    <rdf:RDF>
      <cc:Work
         rdf:about="">
        <dc:format>image/svg+xml</dc:format>
        <dc:type
           rdf:resource="http://purl.org/dc/dcmitype/StillImage" />
        <dc:title />
      </cc:Work>
    </rdf:RDF>
  </metadata>
  <g
     id="g4206">
    <path
       d="m 41,41.5 a 17,5.4999999 0 0 1 -34,0 17,5.4999999 0 1 1 34,0 z"
       inkscape:connector-curvature="0"
       id="path3818-0-5"
       style="fill:url(#radialGradient3035);fill-opacity:1;stroke:none" />
    <path
       d="M 24,3.5000009 C 12.68881,3.5000009 3.5,12.688807 3.5,24 3.5,35.311193 12.68881,44.500003 24,44.5 35.31119,44.5 44.50001,35.311193 44.5,24 44.5,12.688807 35.31119,3.5000009 24,3.5000009 z"
       inkscape:connector-curvature="0"
       id="path2555-7-2"
       style="color:#000000;fill:url(#radialGradient3032);fill-opacity:1;fill-rule:nonzero;stroke:none;stroke-width:0.99999994;marker:none;visibility:visible;display:inline;overflow:visible;enable-background:accumulate" />
    <path
       d="M 24,3.5000003 C 12.688809,3.5000003 3.5000005,12.688809 3.5000005,24 3.5000005,35.311193 12.688809,44.500004 24,44.500001 35.311191,44.500001 44.500008,35.311193 44.500001,24 44.500001,12.688809 35.311191,3.5000004 24,3.5000004 z"
       inkscape:connector-curvature="0"
       id="path2555-7-65"
       style="color:#000000;fill:url(#radialGradient3029);fill-opacity:1;fill-rule:nonzero;stroke:none;stroke-width:1;marker:none;visibility:visible;display:inline;overflow:visible;enable-background:accumulate" />
    <path
       d="M 43.5,24.000001 C 43.5,34.76955 34.76954,43.5 23.99999,43.5 13.23045,43.5 4.5,34.76955 4.5,24.000001 4.5,13.23045 13.23045,4.5000019 23.99999,4.5000019 34.76954,4.5000019 43.5,13.23045 43.5,24.000001 z"
       inkscape:connector-curvature="0"
       id="path4176"
       style="opacity:0.5;color:#000000;fill:none;stroke:url(#linearGradient3026);stroke-width:1;stroke-linecap:round;stroke-linejoin:round;stroke-miterlimit:4;stroke-opacity:1;stroke-dasharray:none;stroke-dashoffset:0;marker:none;visibility:visible;display:inline;overflow:visible;enable-background:accumulate" />
    <path
       d="m 24,3.500115 c -11.31113,0 -20.499885,9.188754 -20.499885,20.499884 0,11.311131 9.188755,20.499891 20.499885,20.499887 11.31113,0 20.4999,-9.188756 20.499886,-20.499887 C 44.499886,12.688869 35.31113,3.5001149 24,3.5001149 z"
       inkscape:connector-curvature="0"
       id="path2555-7-1-7"
       style="opacity:0.5;color:#000000;fill:none;stroke:#7e2934;stroke-width:0.99999988;stroke-linecap:round;stroke-linejoin:round;stroke-miterlimit:4;stroke-opacity:1;stroke-dasharray:none;stroke-dashoffset:0;marker:none;visibility:visible;display:inline;overflow:visible;enable-background:accumulate" />
    <g
       transform="matrix(1.0001526,0,0,1.000438,-1.0018312,-0.00504858)"
       id="g4317">
      <path
         inkscape:connector-curvature="0"
         id="path4238"
         d="m 21,12 c -4.406433,0 -8,3.593652 -8,8.000187 0,4.406536 3.593567,8.000188 8,8.000188 1.479148,0 2.861953,-0.412525 4.052734,-1.117214 l 8.746094,8.967007 a 0.50005,0.50006174 0 0 0 0.761719,-0.05664 l 1.34375,-1.849653 A 0.50005,0.50006174 0 0 0 35.84375,33.287608 L 27.164062,25.092104 C 28.310579,23.707195 29,21.93153 29,20.000187 29,15.593652 25.406433,12 21,12 Z m 0,2.000047 c 3.325494,0 6,2.674569 6,6.00014 0,3.325572 -2.674506,6.000141 -6,6.000141 -3.325494,0 -6,-2.674569 -6,-6.000141 0,-3.325571 2.674506,-6.00014 6,-6.00014 z"
         style="color:#000000;font-style:normal;font-variant:normal;font-weight:normal;font-stretch:normal;font-size:medium;line-height:normal;font-family:sans-serif;text-indent:0;text-align:start;text-decoration:none;text-decoration-line:none;text-decoration-style:solid;text-decoration-color:#000000;letter-spacing:normal;word-spacing:normal;text-transform:none;direction:ltr;block-progression:tb;writing-mode:lr-tb;baseline-shift:baseline;text-anchor:start;white-space:normal;clip-rule:nonzero;display:inline;overflow:visible;visibility:visible;opacity:0.15;isolation:auto;mix-blend-mode:normal;color-interpolation:sRGB;color-interpolation-filters:linearRGB;solid-color:#000000;solid-opacity:1;fill:none;fill-opacity:1;fill-rule:evenodd;stroke:#000000;stroke-width:2;stroke-linecap:round;stroke-linejoin:round;stroke-miterlimit:4;stroke-dasharray:none;stroke-dashoffset:0;stroke-opacity:1;color-rendering:auto;image-rendering:auto;shape-rendering:auto;text-rendering:auto;enable-background:accumulate" />
      <path
         style="color:#000000;font-style:normal;font-variant:normal;font-weight:normal;font-stretch:normal;font-size:medium;line-height:normal;font-family:sans-serif;text-indent:0;text-align:start;text-decoration:none;text-decoration-line:none;text-decoration-style:solid;text-decoration-color:#000000;letter-spacing:normal;word-spacing:normal;text-transform:none;direction:ltr;block-progression:tb;writing-mode:lr-tb;baseline-shift:baseline;text-anchor:start;white-space:normal;clip-rule:nonzero;display:inline;overflow:visible;visibility:visible;opacity:0.15;isolation:auto;mix-blend-mode:normal;color-interpolation:sRGB;color-interpolation-filters:linearRGB;solid-color:#000000;solid-opacity:1;fill:none;fill-opacity:1;fill-rule:evenodd;stroke:#000000;stroke-width:1;stroke-linecap:round;stroke-linejoin:round;stroke-miterlimit:4;stroke-dasharray:none;stroke-dashoffset:0;stroke-opacity:1;color-rendering:auto;image-rendering:auto;shape-rendering:auto;text-rendering:auto;enable-background:accumulate"
         d="m 21,12 c -4.406433,0 -8,3.593652 -8,8.000187 0,4.406536 3.593567,8.000188 8,8.000188 1.479148,0 2.861953,-0.412525 4.052734,-1.117214 l 8.746094,8.967007 a 0.50005,0.50006174 0 0 0 0.761719,-0.05664 l 1.34375,-1.849653 A 0.50005,0.50006174 0 0 0 35.84375,33.287608 L 27.164062,25.092104 C 28.310579,23.707195 29,21.93153 29,20.000187 29,15.593652 25.406433,12 21,12 Z m 0,2.000047 c 3.325494,0 6,2.674569 6,6.00014 0,3.325572 -2.674506,6.000141 -6,6.000141 -3.325494,0 -6,-2.674569 -6,-6.000141 0,-3.325571 2.674506,-6.00014 6,-6.00014 z"
         id="path4240"
         inkscape:connector-curvature="0" />
    </g>
    <path
       inkscape:connector-curvature="0"
       id="path11112"
       d="m 20,12 c -4.406433,0 -8,3.593652 -8,8.000187 0,4.406536 3.593567,8.000188 8,8.000188 1.479148,0 2.861953,-0.412525 4.052734,-1.117214 l 8.746094,8.967007 a 0.50005,0.50006174 0 0 0 0.761719,-0.05664 l 1.34375,-1.849653 a 0.50005,0.50006174 0 0 0 -0.06055,-0.656267 L 26.164062,25.092104 C 27.310579,23.707195 28,21.93153 28,20.000187 28,15.593652 24.406433,12 20,12 Z m 0,2.000047 c 3.325494,0 6,2.674569 6,6.00014 0,3.325572 -2.674506,6.000141 -6,6.000141 -3.325494,0 -6,-2.674569 -6,-6.000141 0,-3.325571 2.674506,-6.00014 6,-6.00014 z"
       style="color:#000000;font-style:normal;font-variant:normal;font-weight:normal;font-stretch:normal;font-size:medium;line-height:normal;font-family:sans-serif;text-indent:0;text-align:start;text-decoration:none;text-decoration-line:none;text-decoration-style:solid;text-decoration-color:#000000;letter-spacing:normal;word-spacing:normal;text-transform:none;direction:ltr;block-progression:tb;writing-mode:lr-tb;baseline-shift:baseline;text-anchor:start;white-space:normal;clip-rule:nonzero;display:inline;overflow:visible;visibility:visible;opacity:1;isolation:auto;mix-blend-mode:normal;color-interpolation:sRGB;color-interpolation-filters:linearRGB;solid-color:#000000;solid-opacity:1;fill:#ffffff;fill-opacity:1;fill-rule:evenodd;stroke:none;stroke-width:1;stroke-linecap:round;stroke-linejoin:round;stroke-miterlimit:4;stroke-dasharray:none;stroke-dashoffset:0;stroke-opacity:1;color-rendering:auto;image-rendering:auto;shape-rendering:auto;text-rendering:auto;enable-background:accumulate" />
    <g
       transform="matrix(0.54545439,0,0,0.54545439,6.9090944,6.8090964)"
       id="g4489">
      <path
         style="opacity:0.15;fill:#4998ff;fill-opacity:1;stroke:#000000;stroke-width:1.02504373;stroke-linecap:round;stroke-linejoin:round;stroke-miterlimit:4;stroke-dasharray:none;stroke-opacity:1"
         d="M 34.487478,23.999999 A 10.487478,10.487478 0 0 1 23.999999,34.487478 10.487478,10.487478 0 0 1 13.512522,23.999999 10.487478,10.487478 0 0 1 23.999999,13.512521 10.487478,10.487478 0 0 1 34.487478,23.999999 Z"
         id="path4435"
         inkscape:connector-curvature="0" />
      <path
         d="m 34.86575,22.456853 c 0,-0.811269 0.233456,0.691405 0.08466,-0.0736 -1.054697,-5.481814 -6.274025,-9.307759 -10.942988,-9.383252 -5.526666,0.44071 -9.874751,3.998296 -10.942987,9.38325 -0.148795,0.764975 0.0067,-0.737698 0.0067,0.07358 0,6.490005 4.845174,-1.489995 11.014068,-1.489995 6.168351,0 10.77984,7.980213 10.77984,1.489995 z"
         inkscape:connector-curvature="0"
         id="path4264"
         style="opacity:0.3;fill:url(#linearGradient4433);fill-opacity:1" />
    </g>
  </g>
</svg>

<?xml version="1.0" encoding="UTF-8" standalone="no"?>
<!-- Created with Inkscape (http://www.inkscape.org/) -->
<svg id="svg4061" xmlns:rdf="http://www.w3.org/1999/02/22-rdf-syntax-ns#" xmlns="http://www.w3.org/2000/svg" height="48" width="48" version="1.1" xmlns:cc="http://creativecommons.org/ns#" xmlns:xlink="http://www.w3.org/1999/xlink" xmlns:dc="http://purl.org/dc/elements/1.1/">
 <defs id="defs4063">
  <linearGradient id="linearGradient3026" y2="40.496" gradientUnits="userSpaceOnUse" x2="71.204" gradientTransform="matrix(1.617 0 0 1.617 -92.707 -21.06)" y1="15.369" x1="71.204">
   <stop id="stop4808-4" stop-color="#fff" offset="0"/>
   <stop id="stop4810-0" stop-color="#fff" stop-opacity=".23529" offset=".42448"/>
   <stop id="stop4812-8" stop-color="#fff" stop-opacity=".15686" offset=".82090"/>
   <stop id="stop4814-0" stop-color="#fff" stop-opacity=".39216" offset="1"/>
  </linearGradient>
  <radialGradient id="radialGradient3029" fx="4.459" fy="8.5089" gradientUnits="userSpaceOnUse" cy="8.6258" cx="15.026" gradientTransform="matrix(-3.4973e-8 1.8855 -1.7764 -5.4723e-8 39.14 -7.9932)" r="20">
   <stop id="stop4170" stop-color="#c24251" offset="0"/>
   <stop id="stop4172" stop-color="#c24251" offset=".26238"/>
   <stop id="stop4174" stop-color="#a63643" offset=".66094"/>
   <stop id="stop4176" stop-color="#a63643" offset="1"/>
  </radialGradient>
  <radialGradient id="radialGradient3032" gradientUnits="userSpaceOnUse" cy="3.99" cx="23.896" gradientTransform="matrix(0 2.8885 -3.8128 0 39.213 -65.95)" r="20.397">
   <stop id="stop3244-9-33-7-0-9" stop-color="#fff" offset="0"/>
   <stop id="stop3246-3-5-0-8-5" stop-color="#ddd" offset=".26238"/>
   <stop id="stop3248-1-7-8-8-1" stop-color="#abacae" offset=".66094"/>
   <stop id="stop3250-9-3-0-5-1" stop-color="#89898b" offset="1"/>
  </radialGradient>
  <radialGradient id="radialGradient3035" gradientUnits="userSpaceOnUse" cy="186.17" cx="99.157" gradientTransform="matrix(.27083 0 0 .087623 -2.8551 25.187)" r="62.769">
   <stop id="stop3822-2-6-3" stop-color="#3d3d3d" offset="0"/>
   <stop id="stop3864-8-7-7" stop-color="#686868" stop-opacity=".49804" offset=".5"/>
   <stop id="stop3824-1-2-5" stop-color="#686868" stop-opacity="0" offset="1"/>
  </radialGradient>
  <linearGradient id="linearGradient4433" y2="25.611" gradientUnits="userSpaceOnUse" x2="23.078" gradientTransform="matrix(1 0 0 1.0521 0 -.90547)" y1="13.035" x1="22.759">
   <stop id="stop6305-1-0-2" stop-color="#fff" offset="0"/>
   <stop id="stop6307-5-0-6" stop-color="#fff" stop-opacity="0" offset="1"/>
  </linearGradient>
 </defs>
 <metadata id="metadata4066">
  <rdf:RDF>
   <cc:Work rdf:about="">
    <dc:format>image/svg+xml</dc:format>
    <dc:type rdf:resource="http://purl.org/dc/dcmitype/StillImage"/>
    <dc:title/>
   </cc:Work>
  </rdf:RDF>
 </metadata>
 <g id="g4206">
  <path id="path3818-0-5" fill="url(#radialGradient3035)" d="m41 41.5a17 5.5 0 0 1 -34 0 17 5.5 0 1 1 34 0z"/>
  <path id="path2555-7-2" style="color:#000000" d="m24 3.5c-11.311 0-20.5 9.189-20.5 20.5s9.189 20.5 20.5 20.5 20.5-9.189 20.5-20.5-9.189-20.5-20.5-20.5z" fill="url(#radialGradient3032)"/>
  <path id="path2555-7-65" style="color:#000000" d="m24 3.5c-11.311 0-20.5 9.189-20.5 20.5s9.189 20.5 20.5 20.5 20.5-9.189 20.5-20.5-9.189-20.5-20.5-20.5z" fill="url(#radialGradient3029)"/>
  <path id="path4176" opacity=".5" stroke-linejoin="round" style="color:#000000" d="m43.5 24c0 10.77-8.73 19.5-19.5 19.5s-19.5-8.73-19.5-19.5 8.73-19.5 19.5-19.5 19.5 8.73 19.5 19.5z" stroke="url(#linearGradient3026)" stroke-linecap="round" fill="none"/>
  <path id="path2555-7-1-7" opacity=".5" stroke-linejoin="round" style="color:#000000" d="m24 3.5001c-11.311 0-20.5 9.1888-20.5 20.5s9.1888 20.5 20.5 20.5 20.5-9.1888 20.5-20.5-9.189-20.5-20.5-20.5z" stroke="#7e2934" stroke-linecap="round" fill="none"/>
  <g id="g4317" stroke-linejoin="round" transform="matrix(1.0002 0 0 1.0004 -1.0018 -.0050486)" stroke="#000" stroke-linecap="round" fill="none">
   <path id="path4238" opacity=".15" style="color-rendering:auto;text-decoration-color:#000000;color:#000000;isolation:auto;mix-blend-mode:normal;shape-rendering:auto;solid-color:#000000;block-progression:tb;text-decoration-line:none;text-decoration-style:solid;image-rendering:auto;white-space:normal;text-indent:0;text-transform:none" d="m21 12c-4.4064 0-8 3.5937-8 8.0002s3.5936 8.0002 8 8.0002c1.4791 0 2.862-0.41252 4.0527-1.1172l8.7461 8.967a0.50005 0.50006 0 0 0 0.76172 -0.05664l1.3438-1.8497a0.50005 0.50006 0 0 0 -0.061 -0.655l-8.68-8.196c1.147-1.385 1.836-3.16 1.836-5.092 0-4.406-3.594-8-8-8zm0 2c3.3255 0 6 2.6746 6 6.0001 0 3.3256-2.6745 6.0001-6 6.0001s-6-2.6746-6-6.0001c0-3.3256 2.6745-6.0001 6-6.0001z" stroke-width="2"/>
   <path id="path4240" opacity=".15" style="color-rendering:auto;text-decoration-color:#000000;color:#000000;isolation:auto;mix-blend-mode:normal;shape-rendering:auto;solid-color:#000000;block-progression:tb;text-decoration-line:none;text-decoration-style:solid;image-rendering:auto;white-space:normal;text-indent:0;text-transform:none" d="m21 12c-4.4064 0-8 3.5937-8 8.0002s3.5936 8.0002 8 8.0002c1.4791 0 2.862-0.41252 4.0527-1.1172l8.7461 8.967a0.50005 0.50006 0 0 0 0.76172 -0.05664l1.3438-1.8497a0.50005 0.50006 0 0 0 -0.061 -0.655l-8.68-8.196c1.147-1.385 1.836-3.16 1.836-5.092 0-4.406-3.594-8-8-8zm0 2c3.3255 0 6 2.6746 6 6.0001 0 3.3256-2.6745 6.0001-6 6.0001s-6-2.6746-6-6.0001c0-3.3256 2.6745-6.0001 6-6.0001z"/>
  </g>
  <path id="path11112" style="color-rendering:auto;text-decoration-color:#000000;color:#000000;isolation:auto;mix-blend-mode:normal;shape-rendering:auto;solid-color:#000000;block-progression:tb;text-decoration-line:none;text-decoration-style:solid;image-rendering:auto;white-space:normal;text-indent:0;text-transform:none" d="m20 12c-4.4064 0-8 3.5937-8 8.0002s3.5936 8.0002 8 8.0002c1.4791 0 2.862-0.41252 4.0527-1.1172l8.7461 8.967a0.50005 0.50006 0 0 0 0.76172 -0.05664l1.3438-1.8497a0.50005 0.50006 0 0 0 -0.06055 -0.65627l-8.68-8.195c1.147-1.385 1.836-3.16 1.836-5.092 0-4.406-3.594-8-8-8zm0 2c3.3255 0 6 2.6746 6 6.0001 0 3.3256-2.6745 6.0001-6 6.0001s-6-2.6746-6-6.0001c0-3.3256 2.6745-6.0001 6-6.0001z" fill-rule="evenodd" fill="#fff"/>
  <g id="g4489" transform="matrix(.54545 0 0 .54545 6.9091 6.8091)">
   <path id="path4435" opacity=".15" stroke-linejoin="round" d="m34.487 24a10.487 10.487 0 0 1 -10.487 10.487 10.487 10.487 0 0 1 -10.487 -10.487 10.487 10.487 0 0 1 10.487 -10.487 10.487 10.487 0 0 1 10.487 10.487z" stroke="#000" stroke-linecap="round" stroke-width="1.025" fill="#4998ff"/>
   <path id="path4264" opacity=".3" d="m34.866 22.457c0-0.81127 0.23346 0.6914 0.08466-0.0736-1.0547-5.4818-6.274-9.3078-10.943-9.3833-5.5267 0.44071-9.8748 3.9983-10.943 9.3832-0.1488 0.76498 0.0067-0.7377 0.0067 0.07358 0 6.49 4.8452-1.49 11.014-1.49 6.1684 0 10.78 7.9802 10.78 1.49z" fill="url(#linearGradient4433)"/>
  </g>
 </g>
</svg>
